;FLAVOR:RepRap
;TIME:2640
;Filament used: 2.90739m
;Layer height: 0.25
;Generated with Cura_SteamEngine 2.5.0

M163 S0 P1 ; set mix
M163 S1 P0
M163 S2 P0
M164 S0
T0

M85 S600 ;autoapagado de emergencia a los 10 minutos

M155 S5 ; report temp each 5 sec

M140 S100 ; set the bed temperature and continue on
M104 S230; set the hotend temperature and continue on

G21 ;metric values
G91; relative positioning
G0 Z10; 10mm up
G90 ;absolute positioning
M82 ;set extruder to absolute mode
M107 ;start with the fan off
G28 X0 Y0 ;move X/Y to min endstops
G28 Z0 ;move Z to min endstops

M109 S230; wait for the extruder temperature

G92 E0 ;zero the extruded length
G1 F200 E5 ;extrude 5mm of feed stock

G12; clean nozzle

G92 E0 ;zero the extruded length again

M190 S100 ; set the bed temperature and wait

G29;autobed leveling

G92 E0 ;zero the extruded length again
G1 F9000

M117 Imprimiendo...
;LAYER_COUNT:32
;LAYER:0
M107
G0 F4500 X78.934 Y128.455 Z0.3
;TYPE:SKIRT
G1 F900 X79.408 Y128.163 E0.02694
G1 X84.107 Y125.498 E0.28837
G1 X84.478 Y125.301 E0.3087
G1 X93.565 Y120.776 E0.79995
G1 X94.521 Y120.186 E0.85432
G1 X95.1 Y119.72 E0.89029
G1 X95.739 Y119.257 E0.92848
G1 X96.422 Y118.86 E0.96671
G1 X97.142 Y118.535 E1.00493
G1 X97.891 Y118.284 E1.04316
G1 X98.661 Y118.11 E1.08137
G1 X99.445 Y118.015 E1.11958
G1 X100.234 Y118 E1.15777
G1 X101.021 Y118.064 E1.19598
G1 X101.798 Y118.208 E1.23423
G1 X102.556 Y118.43 E1.27245
G1 X103.288 Y118.727 E1.31068
G1 X103.985 Y119.096 E1.34884
G1 X104.938 Y119.766 E1.40522
G1 X105.204 Y119.984 E1.42186
G1 X107.143 Y121.151 E1.53138
G1 X113.355 Y124.187 E1.86598
G1 X113.611 Y124.318 E1.8799
G1 X118.602 Y126.99 E2.15387
G1 X118.945 Y127.185 E2.17296
G1 X121.293 Y128.599 E2.3056
G1 X121.667 Y128.839 E2.32711
G1 X125.658 Y131.564 E2.56097
G1 X126.167 Y131.943 E2.59168
G1 X129.515 Y134.653 E2.80013
G1 X129.965 Y135.046 E2.82904
G1 X132.159 Y137.119 E2.97512
G1 X132.566 Y137.534 E3.00325
G1 X134.7 Y139.875 E3.15654
G1 X135.152 Y140.418 E3.19073
G1 X137.166 Y143.075 E3.35208
G1 X137.529 Y143.596 E3.38281
G1 X138.459 Y145.056 E3.46658
G1 X138.712 Y145.484 E3.49064
G1 X139.57 Y147.042 E3.57671
G1 X139.819 Y147.535 E3.60344
G1 X140.575 Y149.172 E3.6907
G1 X140.819 Y149.761 E3.72156
G1 X141.454 Y151.496 E3.81097
G1 X141.669 Y152.18 E3.84566
G1 X142.15 Y153.996 E3.93658
G1 X142.283 Y154.59 E3.96603
G1 X142.456 Y155.536 E4.01257
G1 X142.547 Y156.193 E4.04467
G1 X142.731 Y158.109 E4.13782
G1 X142.764 Y159.082 E4.18493
G1 X142.707 Y161.038 E4.27963
G1 X142.601 Y162.109 E4.33171
G1 X142.271 Y164.065 E4.42771
G1 X141.995 Y165.187 E4.48363
G1 X141.362 Y167.127 E4.58238
G1 X141.08 Y167.864 E4.62057
G1 X140.893 Y168.256 E4.64159
G1 X139.935 Y170.131 E4.74348
G1 X139.54 Y170.815 E4.78171
G1 X139.28 Y171.194 E4.80395
G1 X137.981 Y172.966 E4.91027
G1 X137.482 Y173.578 E4.94849
G1 X137.178 Y173.897 E4.96981
G1 X135.552 Y175.507 E5.08055
G1 X134.661 Y176.266 E5.13719
G1 X132.706 Y177.692 E5.25429
G1 X131.769 Y178.278 E5.30778
G1 X129.543 Y179.461 E5.42977
G1 X128.838 Y179.791 E5.46744
G1 X127.629 Y180.286 E5.53066
G1 X126.961 Y180.525 E5.56499
G1 X124.414 Y181.306 E5.69392
G1 X123.551 Y181.518 E5.73692
G1 X120.826 Y182.024 E5.87105
G1 X120.01 Y182.131 E5.91088
G1 X117.209 Y182.35 E6.04684
G1 X116.449 Y182.373 E6.08364
G1 X113.624 Y182.318 E6.22037
G1 X112.905 Y182.27 E6.25524
G1 X110.118 Y181.957 E6.39097
G1 X109.425 Y181.848 E6.42491
G1 X106.699 Y181.29 E6.55957
G1 X106.016 Y181.117 E6.59367
G1 X103.417 Y180.335 E6.72501
G1 X102.671 Y180.069 E6.76334
G1 X100.192 Y179.039 E6.89325
G1 X99.96 Y178.929 E6.90568
G1 X99.016 Y179.391 E6.95654
G1 X98.199 Y179.734 E6.99942
G1 X95.673 Y180.632 E7.12915
G1 X94.963 Y180.847 E7.16505
G1 X92.3 Y181.517 E7.29794
G1 X91.797 Y181.626 E7.32285
G1 X90.416 Y181.878 E7.39078
G1 X90.056 Y181.935 E7.40842
G1 X88.666 Y182.122 E7.4763
G1 X88.152 Y182.174 E7.5013
G1 X85.324 Y182.365 E7.63847
G1 X84.586 Y182.38 E7.67419
G1 X81.756 Y182.303 E7.81119
G1 X80.97 Y182.242 E7.84934
G1 X78.297 Y181.897 E7.97977
G1 X77.68 Y181.792 E8.01006
G1 X76.248 Y181.489 E8.08089
G1 X75.797 Y181.379 E8.10336
G1 X74.49 Y181.02 E8.16895
G1 X73.814 Y180.801 E8.20334
G1 X71.364 Y179.881 E8.32999
G1 X70.444 Y179.466 E8.37883
G1 X68.217 Y178.282 E8.50089
G1 X67.278 Y177.693 E8.55453
G1 X65.326 Y176.267 E8.67151
G1 X64.436 Y175.508 E8.72812
G1 X62.814 Y173.9 E8.83865
G1 X62.282 Y173.317 E8.87684
G1 X62.01 Y172.966 E8.89833
G1 X60.71 Y171.189 E9.00488
G1 X60.276 Y170.529 E9.04311
G1 X60.059 Y170.133 E9.06496
G1 X59.101 Y168.258 E9.16686
G1 X58.778 Y167.537 E9.20509
G1 X58.633 Y167.132 E9.22591
G1 X58.002 Y165.201 E9.32422
G1 X57.775 Y164.343 E9.36717
G1 X57.571 Y163.347 E9.41637
G1 X57.448 Y162.526 E9.45654
G1 X57.26 Y160.564 E9.55193
G1 X57.229 Y159.542 E9.60141
G1 X57.298 Y157.604 E9.69525
G1 X57.384 Y156.692 E9.73959
G1 X57.674 Y154.814 E9.83155
G1 X57.889 Y153.84 E9.87982
G1 X58.668 Y151.143 E10.01567
G1 X58.954 Y150.327 E10.05751
G1 X59.653 Y148.636 E10.14606
G1 X59.904 Y148.09 E10.17514
G1 X60.715 Y146.49 E10.26195
G1 X60.964 Y146.036 E10.28701
G1 X61.857 Y144.531 E10.3717
G1 X62.226 Y143.966 E10.40435
G1 X64.194 Y141.221 E10.56781
G1 X64.656 Y140.638 E10.60381
G1 X66.766 Y138.22 E10.75911
G1 X67.185 Y137.775 E10.78869
G1 X69.366 Y135.639 E10.93642
G1 X69.747 Y135.29 E10.96143
G1 X71.969 Y133.385 E11.10306
G1 X72.302 Y133.115 E11.12381
G1 X74.543 Y131.398 E11.26043
G1 X74.965 Y131.097 E11.28552
G1 X78.934 Y128.455 E11.51625
G0 F4500 X79.156 Y128.788
G1 F900 X79.605 Y128.511 E11.54179
G1 X84.304 Y125.846 E11.80321
G1 X84.656 Y125.659 E11.8225
G1 X93.758 Y121.126 E12.31458
G1 X94.758 Y120.509 E12.37145
G1 X95.351 Y120.032 E12.40827
G1 X95.974 Y119.581 E12.44549
G1 X96.641 Y119.198 E12.48272
G1 X97.344 Y118.886 E12.51994
G1 X98.075 Y118.648 E12.55714
G1 X98.828 Y118.488 E12.59439
G1 X99.593 Y118.407 E12.63162
G1 X100.362 Y118.405 E12.66884
G1 X101.127 Y118.484 E12.70605
G1 X101.88 Y118.641 E12.74328
G1 X102.612 Y118.876 E12.78048
G1 X103.316 Y119.185 E12.81769
G1 X103.985 Y119.566 E12.85495
G1 X104.684 Y120.075 E12.89679
G1 X104.969 Y120.309 E12.91464
G1 X106.967 Y121.511 E13.02748
G1 X113.179 Y124.547 E13.36208
G1 X113.423 Y124.671 E13.37532
G1 X118.414 Y127.343 E13.64929
G1 X118.739 Y127.528 E13.66739
G1 X121.087 Y128.942 E13.80003
G1 X121.442 Y129.17 E13.82045
G1 X125.433 Y131.895 E14.05431
G1 X125.916 Y132.254 E14.08344
G1 X129.264 Y134.964 E14.29188
G1 X129.69 Y135.337 E14.31929
G1 X131.884 Y137.41 E14.46536
G1 X132.271 Y137.804 E14.49208
G1 X134.405 Y140.145 E14.64538
G1 X134.833 Y140.66 E14.67779
G1 X136.847 Y143.317 E14.83913
G1 X137.191 Y143.811 E14.86826
G1 X138.121 Y145.271 E14.95203
G1 X138.362 Y145.677 E14.97488
G1 X139.22 Y147.235 E15.06096
G1 X139.456 Y147.702 E15.08628
G1 X140.212 Y149.339 E15.17354
G1 X140.443 Y149.899 E15.20285
G1 X141.078 Y151.634 E15.29226
G1 X141.282 Y152.282 E15.32514
G1 X141.763 Y154.098 E15.41605
G1 X141.889 Y154.662 E15.44402
G1 X142.062 Y155.608 E15.49056
G1 X142.149 Y156.232 E15.52105
G1 X142.333 Y158.148 E15.6142
G1 X142.364 Y159.071 E15.65889
G1 X142.307 Y161.027 E15.75359
G1 X142.207 Y162.042 E15.80295
G1 X141.877 Y163.998 E15.89894
G1 X141.615 Y165.062 E15.95197
G1 X140.982 Y167.002 E16.05072
G1 X140.706 Y167.72 E16.08795
G1 X140.537 Y168.074 E16.10693
G1 X139.579 Y169.949 E16.20883
G1 X139.194 Y170.615 E16.24606
G1 X138.957 Y170.957 E16.26619
G1 X137.658 Y172.729 E16.37252
G1 X137.172 Y173.325 E16.40974
G1 X136.897 Y173.612 E16.42897
G1 X135.271 Y175.222 E16.53971
G1 X134.425 Y175.943 E16.5935
G1 X132.47 Y177.369 E16.7106
G1 X131.582 Y177.925 E16.7613
G1 X129.356 Y179.108 E16.88329
G1 X128.687 Y179.421 E16.91904
G1 X127.478 Y179.916 E16.98226
G1 X126.843 Y180.143 E17.01489
G1 X124.296 Y180.924 E17.14382
G1 X123.478 Y181.125 E17.18458
G1 X120.753 Y181.631 E17.31871
G1 X119.979 Y181.732 E17.35648
G1 X117.178 Y181.951 E17.49245
G1 X116.457 Y181.973 E17.52735
G1 X113.632 Y181.918 E17.66409
G1 X112.95 Y181.873 E17.69717
G1 X110.163 Y181.56 E17.83289
G1 X109.505 Y181.456 E17.86513
G1 X106.779 Y180.898 E17.99978
G1 X106.131 Y180.734 E18.03213
G1 X103.532 Y179.952 E18.16347
G1 X102.825 Y179.7 E18.1998
G1 X100.346 Y178.67 E18.32971
G1 X99.955 Y178.485 E18.35064
G1 X98.84 Y179.031 E18.41072
G1 X98.065 Y179.358 E18.45143
G1 X95.539 Y180.256 E18.58116
G1 X94.866 Y180.459 E18.61518
G1 X92.203 Y181.129 E18.74807
G1 X91.725 Y181.233 E18.77174
G1 X90.344 Y181.485 E18.83968
G1 X90.003 Y181.539 E18.85639
G1 X88.613 Y181.726 E18.92426
G1 X88.125 Y181.775 E18.94799
G1 X85.297 Y181.966 E19.08516
G1 X84.597 Y181.98 E19.11905
G1 X81.767 Y181.903 E19.25605
G1 X81.021 Y181.845 E19.29226
G1 X78.348 Y181.5 E19.42269
G1 X77.763 Y181.401 E19.4514
G1 X76.331 Y181.098 E19.52224
G1 X75.903 Y180.994 E19.54355
G1 X74.596 Y180.635 E19.60914
G1 X73.955 Y180.427 E19.64176
G1 X71.505 Y179.507 E19.7684
G1 X70.632 Y179.113 E19.81475
G1 X68.405 Y177.929 E19.93681
G1 X67.514 Y177.37 E19.98771
G1 X65.562 Y175.944 E20.1047
G1 X64.717 Y175.224 E20.15842
G1 X63.095 Y173.616 E20.26895
G1 X62.578 Y173.047 E20.30616
G1 X62.333 Y172.73 E20.32555
G1 X61.033 Y170.953 E20.4321
G1 X60.611 Y170.31 E20.46932
G1 X60.415 Y169.951 E20.48911
G1 X59.457 Y168.076 E20.59101
G1 X59.143 Y167.374 E20.62822
G1 X59.013 Y167.008 E20.64702
G1 X58.382 Y165.077 E20.74533
G1 X58.166 Y164.263 E20.78608
G1 X57.962 Y163.267 E20.83529
G1 X57.846 Y162.488 E20.8734
G1 X57.658 Y160.526 E20.96878
G1 X57.629 Y159.557 E21.0157
G1 X57.698 Y157.619 E21.10954
G1 X57.78 Y156.753 E21.15164
G1 X58.07 Y154.875 E21.2436
G1 X58.274 Y153.951 E21.28939
G1 X59.053 Y151.254 E21.42524
G1 X59.323 Y150.48 E21.46491
G1 X60.022 Y148.789 E21.55346
G1 X60.26 Y148.27 E21.58109
G1 X61.071 Y146.67 E21.6679
G1 X61.308 Y146.24 E21.69166
G1 X62.201 Y144.735 E21.77635
G1 X62.551 Y144.199 E21.80733
G1 X64.519 Y141.454 E21.97078
G1 X64.957 Y140.901 E22.00492
G1 X67.067 Y138.483 E22.16023
G1 X67.465 Y138.061 E22.1883
G1 X69.646 Y135.925 E22.33603
G1 X70.008 Y135.594 E22.35977
G1 X72.23 Y133.689 E22.50141
G1 X72.545 Y133.433 E22.52105
G1 X74.786 Y131.716 E22.65767
G1 X75.187 Y131.43 E22.68151
G1 X79.156 Y128.788 E22.91225
G0 F4500 X79.377 Y129.121
G1 F900 X79.803 Y128.859 E22.93645
G1 X84.502 Y126.194 E23.19788
G1 X84.835 Y126.017 E23.21613
G1 X93.955 Y121.475 E23.70918
G1 X94.984 Y120.841 E23.76767
G1 X95.602 Y120.343 E23.80608
G1 X96.208 Y119.906 E23.84224
G1 X96.859 Y119.536 E23.87847
G1 X97.545 Y119.237 E23.91469
G1 X98.258 Y119.014 E23.95084
G1 X98.992 Y118.868 E23.98706
G1 X99.737 Y118.801 E24.02325
G1 X100.485 Y118.813 E24.05946
G1 X101.227 Y118.906 E24.09565
G1 X101.956 Y119.077 E24.13188
G1 X102.661 Y119.325 E24.16805
G1 X103.337 Y119.647 E24.20429
G1 X103.974 Y120.039 E24.24048
G1 X104.431 Y120.384 E24.26819
G1 X104.745 Y120.642 E24.28786
G1 X106.763 Y121.856 E24.40183
G1 X113.004 Y124.906 E24.73799
G1 X113.234 Y125.024 E24.7505
G1 X118.225 Y127.696 E25.02446
G1 X118.532 Y127.87 E25.04154
G1 X120.88 Y129.284 E25.17418
G1 X121.216 Y129.5 E25.19351
G1 X125.207 Y132.225 E25.42738
G1 X125.664 Y132.565 E25.45494
G1 X129.012 Y135.275 E25.66339
G1 X129.415 Y135.628 E25.68932
G1 X131.609 Y137.701 E25.83539
G1 X131.975 Y138.073 E25.86064
G1 X134.109 Y140.414 E26.01394
G1 X134.515 Y140.902 E26.04466
G1 X136.529 Y143.559 E26.20601
G1 X136.854 Y144.026 E26.23354
G1 X137.784 Y145.486 E26.31731
G1 X138.012 Y145.87 E26.33892
G1 X138.87 Y147.428 E26.425
G1 X139.093 Y147.87 E26.44896
G1 X139.849 Y149.507 E26.53622
G1 X140.068 Y150.036 E26.56392
G1 X140.703 Y151.771 E26.65333
G1 X140.896 Y152.385 E26.68448
G1 X141.377 Y154.201 E26.77539
G1 X141.496 Y154.734 E26.80182
G1 X141.669 Y155.68 E26.84836
G1 X141.751 Y156.27 E26.87719
G1 X141.935 Y158.186 E26.97034
G1 X141.964 Y159.059 E27.01261
G1 X141.907 Y161.015 E27.1073
G1 X141.812 Y161.976 E27.15404
G1 X141.482 Y163.932 E27.25003
G1 X141.235 Y164.938 E27.30016
G1 X140.602 Y166.878 E27.39892
G1 X140.18 Y167.892 E27.45207
G1 X139.222 Y169.767 E27.55396
G1 X138.635 Y170.721 E27.60817
G1 X137.336 Y172.493 E27.7145
G1 X136.615 Y173.328 E27.76789
G1 X134.989 Y174.938 E27.87862
G1 X134.189 Y175.619 E27.92946
G1 X132.234 Y177.045 E28.04657
G1 X131.394 Y177.571 E28.09453
G1 X129.168 Y178.754 E28.21652
G1 X128.535 Y179.051 E28.25036
G1 X127.326 Y179.546 E28.31358
G1 X126.726 Y179.76 E28.34441
G1 X124.179 Y180.541 E28.47333
G1 X123.405 Y180.731 E28.5119
G1 X120.68 Y181.237 E28.64603
G1 X119.948 Y181.334 E28.68176
G1 X117.147 Y181.553 E28.81772
G1 X116.465 Y181.573 E28.85074
G1 X113.64 Y181.518 E28.98748
G1 X112.995 Y181.475 E29.01876
G1 X110.208 Y181.162 E29.15448
G1 X109.585 Y181.064 E29.185
G1 X106.859 Y180.506 E29.31966
G1 X106.246 Y180.351 E29.35026
G1 X103.647 Y179.569 E29.4816
G1 X102.978 Y179.33 E29.51598
G1 X100.499 Y178.3 E29.64589
G1 X99.952 Y178.041 E29.67518
G1 X98.664 Y178.672 E29.74459
G1 X97.931 Y178.981 E29.78309
G1 X95.405 Y179.879 E29.91282
G1 X94.768 Y180.071 E29.94502
G1 X92.105 Y180.741 E30.07791
G1 X91.654 Y180.839 E30.10024
G1 X90.273 Y181.091 E30.16818
G1 X89.949 Y181.143 E30.18406
G1 X88.559 Y181.33 E30.25193
G1 X88.098 Y181.376 E30.27435
G1 X85.27 Y181.567 E30.41152
G1 X84.608 Y181.58 E30.44356
G1 X81.778 Y181.503 E30.58057
G1 X81.072 Y181.448 E30.61483
G1 X78.399 Y181.103 E30.74526
G1 X77.846 Y181.009 E30.77241
G1 X76.414 Y180.706 E30.84324
G1 X76.009 Y180.608 E30.86341
G1 X74.702 Y180.249 E30.929
G1 X74.095 Y180.052 E30.95988
G1 X71.645 Y179.132 E31.08653
G1 X70.82 Y178.76 E31.13033
G1 X68.593 Y177.576 E31.25238
G1 X67.75 Y177.047 E31.30055
G1 X65.798 Y175.621 E31.41753
G1 X64.999 Y174.94 E31.46834
G1 X63.377 Y173.332 E31.57887
G1 X62.655 Y172.494 E31.6324
G1 X61.355 Y170.717 E31.73895
G1 X60.772 Y169.769 E31.79281
G1 X59.814 Y167.894 E31.8947
G1 X59.393 Y166.883 E31.9477
G1 X58.762 Y164.952 E32.04601
G1 X58.558 Y164.183 E32.08451
G1 X58.354 Y163.187 E32.13371
G1 X58.244 Y162.45 E32.16977
G1 X58.056 Y160.488 E32.26516
G1 X58.028 Y159.571 E32.30955
G1 X58.097 Y157.633 E32.4034
G1 X58.175 Y156.814 E32.44321
G1 X58.465 Y154.936 E32.53517
G1 X58.658 Y154.062 E32.57849
G1 X59.437 Y151.365 E32.71434
G1 X59.693 Y150.633 E32.75187
G1 X60.392 Y148.942 E32.84042
G1 X60.617 Y148.451 E32.86656
G1 X61.428 Y146.851 E32.95336
G1 X61.652 Y146.444 E32.97585
G1 X62.545 Y144.939 E33.06053
G1 X62.876 Y144.432 E33.08984
G1 X64.844 Y141.687 E33.25329
G1 X65.259 Y141.164 E33.2856
G1 X67.369 Y138.746 E33.4409
G1 X67.745 Y138.347 E33.46743
G1 X69.926 Y136.211 E33.61517
G1 X70.268 Y135.898 E33.6376
G1 X72.49 Y133.993 E33.77924
G1 X72.789 Y133.75 E33.79789
G1 X75.03 Y132.033 E33.93451
G1 X75.408 Y131.763 E33.95699
G1 X79.377 Y129.121 E34.18773
G0 F4500 X79.599 Y129.454
G1 F900 X80 Y129.207 E34.21052
G1 X84.699 Y126.542 E34.47195
G1 X85.013 Y126.375 E34.48916
G1 X94.148 Y121.826 E34.98301
G1 X95.216 Y121.167 E35.04374
G1 X95.852 Y120.655 E35.08326
G1 X96.442 Y120.231 E35.11842
G1 X97.075 Y119.875 E35.15356
G1 X97.744 Y119.59 E35.18875
G1 X98.439 Y119.381 E35.22387
G1 X99.154 Y119.249 E35.25906
G1 X99.878 Y119.197 E35.29419
G1 X100.604 Y119.225 E35.32935
G1 X101.322 Y119.332 E35.36448
G1 X102.025 Y119.517 E35.39965
G1 X102.702 Y119.779 E35.43479
G1 X103.347 Y120.113 E35.46994
G1 X104.177 Y120.693 E35.51894
G1 X104.514 Y120.97 E35.54005
G1 X106.569 Y122.206 E35.6561
G1 X112.828 Y125.265 E35.99323
G1 X113.045 Y125.376 E36.00503
G1 X118.036 Y128.048 E36.279
G1 X118.326 Y128.213 E36.29514
G1 X120.674 Y129.627 E36.42778
G1 X120.991 Y129.83 E36.446
G1 X124.982 Y132.555 E36.67987
G1 X125.412 Y132.876 E36.70583
G1 X128.76 Y135.586 E36.91428
G1 X129.141 Y135.919 E36.93877
G1 X131.335 Y137.992 E37.08484
G1 X131.68 Y138.343 E37.10866
G1 X133.814 Y140.684 E37.26196
G1 X134.196 Y141.143 E37.29085
G1 X136.21 Y143.8 E37.4522
G1 X136.517 Y144.241 E37.4782
G1 X137.447 Y145.701 E37.56197
G1 X137.661 Y146.063 E37.58233
G1 X138.519 Y147.621 E37.6684
G1 X138.73 Y148.038 E37.69102
G1 X139.486 Y149.675 E37.77828
G1 X139.692 Y150.174 E37.8044
G1 X140.327 Y151.909 E37.89381
G1 X140.509 Y152.487 E37.92314
G1 X140.99 Y154.303 E38.01405
G1 X141.102 Y154.806 E38.03899
G1 X141.275 Y155.752 E38.08553
G1 X141.353 Y156.308 E38.1127
G1 X141.537 Y158.224 E38.20585
