; generated by Slic3r 1.2.9 on 2017-02-07 at 23:53:39

; external perimeters extrusion width = 0.48mm
; perimeters extrusion width = 0.48mm
; infill extrusion width = 0.48mm
; solid infill extrusion width = 0.48mm
; top infill extrusion width = 0.48mm

; external perimeters extrusion width = 0.48mm
; perimeters extrusion width = 0.48mm
; infill extrusion width = 0.48mm
; solid infill extrusion width = 0.48mm
; top infill extrusion width = 0.48mm

M80 ; power on ATX
G4  P5000 ; sleep 5 second
M140 S80 ; set the bed temperature and continue on
M104 S240; set the hotend temperature and continue on
G21 ;metric values
G91; relative positioning
G0 Z10; 10mm up
G90 ;absolute positioning
M82 ;set extruder to absolute mode
M107 ;start with the fan off
G28 X0 Y0 ;move X/Y to min endstops
G28 Z0 ;move Z to min endstops
G29 ;autobed
G1 Z15.0 F9000 ;move the platform down 15mm
M190 S80 ; set the bed temperature and wait
M109 S240; wait for the extruder temperature
G92 E0 ;zero the extruded length
G1 F200 E5 ;extrude 5mm of feed stock
G92 E0 ;zero the extruded length again
G1 F9000
M117 Imprimiendo...
G21 ; set units to millimeters
G90 ; use absolute coordinates
M82 ; use absolute distances for extrusion
G92 E0
T0
G92 E0
G1 Z0.350 F7800.000
G1 E-2.00000 F2400.00000
G92 E0
G1 X86.740 Y134.319 F7800.000
G1 E2.00000 F2400.00000
G1 X90.000 Y133.450 E2.18369 F1800.000
G1 X110.000 Y133.450 E3.27258
G1 X112.245 Y133.847 E3.39673
G1 X114.219 Y134.990 E3.52088
G1 X115.681 Y136.740 E3.64503
G1 X116.550 Y140.000 E3.82872
G1 X116.550 Y160.000 E4.91761
G1 X116.153 Y162.246 E5.04176
G1 X115.010 Y164.219 E5.16591
G1 X113.260 Y165.681 E5.29006
G1 X110.000 Y166.550 E5.47376
G1 X90.000 Y166.550 E6.56265
G1 X87.755 Y166.153 E6.68680
G1 X85.781 Y165.010 E6.81095
G1 X84.319 Y163.260 E6.93510
G1 X83.450 Y160.000 E7.11879
G1 X83.450 Y140.000 E8.20768
G1 X83.847 Y137.755 E8.33183
G1 X84.990 Y135.781 E8.45598
G1 X86.694 Y134.358 E8.57686
G1 X87.002 Y134.488 F7800.000
G1 X90.000 Y133.725 E8.74530 F1800.000
G1 X110.000 Y133.725 E9.83419
G1 X112.196 Y134.122 E9.95569
G1 X114.114 Y135.262 E10.07719
G1 X115.512 Y137.002 E10.19868
G1 X116.275 Y140.000 E10.36713
G1 X116.275 Y160.000 E11.45601
G1 X115.878 Y162.196 E11.57751
G1 X114.738 Y164.114 E11.69901
G1 X112.998 Y165.512 E11.82050
G1 X110.000 Y166.275 E11.98895
G1 X90.000 Y166.275 E13.07784
G1 X87.804 Y165.878 E13.19933
G1 X85.886 Y164.738 E13.32083
G1 X84.488 Y162.998 E13.44233
G1 X83.725 Y160.000 E13.61077
G1 X83.725 Y140.000 E14.69966
G1 X84.122 Y137.804 E14.82115
G1 X85.262 Y135.886 E14.94265
G1 X86.955 Y134.525 E15.06088
G1 E13.06088 F2400.00000
G92 E0
G1 X109.275 Y159.275 F7800.000
G1 E2.00000 F2400.00000
G1 X90.725 Y159.275 E3.00997 F1800.000
G1 X90.725 Y140.725 E4.01994
G1 X109.275 Y140.725 E5.02991
G1 X109.275 Y159.215 E6.03661
G1 X109.550 Y159.550 F7800.000
G1 X90.450 Y159.550 E7.07651 F1800.000
G1 X90.450 Y140.450 E8.11641
G1 X109.550 Y140.450 E9.15631
G1 X109.550 Y159.490 E10.19294
G1 X109.825 Y159.825 F7800.000
G1 X90.175 Y159.825 E11.26278 F1800.000
G1 X90.175 Y140.175 E12.33261
G1 X109.825 Y140.175 E13.40244
G1 X109.825 Y159.765 E14.46901
G1 X109.479 Y159.625 F7800.000
G1 X109.120 Y141.037 F7800.000
G1 X108.963 Y140.880 E14.48108 F1800.000
G1 X108.574 Y140.880 E14.50226
G1 X109.120 Y141.426 E14.54427
G1 X109.120 Y141.815 E14.56545
G1 X108.185 Y140.880 E14.63742
G1 X107.797 Y140.880 E14.65860
G1 X109.120 Y142.203 E14.76052
G1 X109.120 Y142.592 E14.78170
G1 X107.408 Y140.880 E14.91358
G1 X107.019 Y140.880 E14.93476
G1 X109.120 Y142.981 E15.09659
G1 X109.120 Y143.370 E15.11777
G1 X106.630 Y140.880 E15.30955
G1 X106.241 Y140.880 E15.33073
G1 X109.120 Y143.759 E15.55247
G1 X109.120 Y144.148 E15.57365
G1 X105.852 Y140.880 E15.82533
G1 X105.463 Y140.880 E15.84651
G1 X109.120 Y144.537 E16.12815
G1 X109.120 Y144.926 E16.14933
G1 X105.074 Y140.880 E16.46093
G1 X104.686 Y140.880 E16.48211
G1 X109.120 Y145.314 E16.82365
G1 X109.120 Y145.703 E16.84483
G1 X104.297 Y140.880 E17.21633
G1 X103.908 Y140.880 E17.23751
G1 X109.120 Y146.092 E17.63897
G1 X109.120 Y146.481 E17.66015
G1 X103.519 Y140.880 E18.09155
G1 X103.130 Y140.880 E18.11273
G1 X109.120 Y146.870 E18.57409
G1 X109.120 Y147.259 E18.59527
G1 X102.741 Y140.880 E19.08658
G1 X102.352 Y140.880 E19.10776
G1 X109.120 Y147.648 E19.62903
G1 X109.120 Y148.037 E19.65021
G1 X101.963 Y140.880 E20.20142
G1 X101.574 Y140.880 E20.22260
G1 X109.120 Y148.426 E20.80377
G1 X109.120 Y148.814 E20.82495
G1 X101.186 Y140.880 E21.43608
G1 X100.797 Y140.880 E21.45726
G1 X109.120 Y149.203 E22.09833
G1 X109.120 Y149.592 E22.11951
G1 X100.408 Y140.880 E22.79054
G1 X100.019 Y140.880 E22.81172
G1 X109.120 Y149.981 E23.51270
G1 X109.120 Y150.370 E23.53388
G1 X99.630 Y140.880 E24.26482
G1 X99.241 Y140.880 E24.28600
G1 X109.120 Y150.759 E25.04689
G1 X109.120 Y151.148 E25.06807
G1 X98.852 Y140.880 E25.85891
G1 X98.463 Y140.880 E25.88009
G1 X109.120 Y151.537 E26.70088
G1 X109.120 Y151.926 E26.72206
G1 X98.074 Y140.880 E27.57281
G1 X97.686 Y140.880 E27.59399
G1 X109.120 Y152.314 E28.47469
G1 X109.120 Y152.703 E28.49587
G1 X97.297 Y140.880 E29.40653
G1 X96.908 Y140.880 E29.42771
G1 X109.120 Y153.092 E30.36831
G1 X109.120 Y153.481 E30.38949
G1 X96.519 Y140.880 E31.36005
G1 X96.130 Y140.880 E31.38123
G1 X109.120 Y153.870 E32.38174
G1 X109.120 Y154.259 E32.40292
G1 X95.741 Y140.880 E33.43339
G1 X95.352 Y140.880 E33.45457
G1 X109.120 Y154.648 E34.51499
G1 X109.120 Y155.037 E34.53617
G1 X94.963 Y140.880 E35.62654
G1 X94.574 Y140.880 E35.64772
G1 X109.120 Y155.426 E36.76804
G1 X109.120 Y155.814 E36.78922
G1 X94.186 Y140.880 E37.93950
G1 X93.797 Y140.880 E37.96068
G1 X109.120 Y156.203 E39.14091
G1 X109.120 Y156.592 E39.16209
G1 X93.408 Y140.880 E40.37227
G1 X93.019 Y140.880 E40.39345
G1 X109.120 Y156.981 E41.63359
G1 X109.120 Y157.370 E41.65477
G1 X92.630 Y140.880 E42.92486
G1 X92.241 Y140.880 E42.94604
G1 X109.120 Y157.759 E44.24608
G1 X109.120 Y158.148 E44.26726
G1 X91.852 Y140.880 E45.59725
G1 X91.463 Y140.880 E45.61843
G1 X109.120 Y158.537 E46.97838
G1 X109.120 Y158.925 E46.99956
G1 X91.075 Y140.880 E48.38946
G1 X90.880 Y141.075 E48.40444
G1 X108.925 Y159.120 E49.79434
G1 X108.537 Y159.120 E49.81552
G1 X90.880 Y141.463 E51.17546
G1 X90.880 Y141.852 E51.19664
G1 X108.148 Y159.120 E52.52663
G1 X107.759 Y159.120 E52.54781
G1 X90.880 Y142.241 E53.84785
G1 X90.880 Y142.630 E53.86903
G1 X107.370 Y159.120 E55.13912
G1 X106.981 Y159.120 E55.16030
G1 X90.880 Y143.019 E56.40043
G1 X90.880 Y143.408 E56.42161
G1 X106.592 Y159.120 E57.63179
G1 X106.203 Y159.120 E57.65297
G1 X90.880 Y143.797 E58.83320
G1 X90.880 Y144.186 E58.85438
G1 X105.814 Y159.120 E60.00465
G1 X105.425 Y159.120 E60.02583
G1 X90.880 Y144.575 E61.14615
G1 X90.880 Y144.963 E61.16733
G1 X105.037 Y159.120 E62.25770
G1 X104.648 Y159.120 E62.27888
G1 X90.880 Y145.352 E63.33929
G1 X90.880 Y145.741 E63.36047
G1 X104.259 Y159.120 E64.39093
G1 X103.870 Y159.120 E64.41211
G1 X90.880 Y146.130 E65.41262
G1 X90.880 Y146.519 E65.43380
G1 X103.481 Y159.120 E66.40436
G1 X103.092 Y159.120 E66.42554
G1 X90.880 Y146.908 E67.36614
G1 X90.880 Y147.297 E67.38732
G1 X102.703 Y159.120 E68.29797
G1 X102.314 Y159.120 E68.31915
G1 X90.880 Y147.686 E69.19985
G1 X90.880 Y148.075 E69.22103
G1 X101.925 Y159.120 E70.07177
G1 X101.537 Y159.120 E70.09295
G1 X90.880 Y148.463 E70.91374
G1 X90.880 Y148.852 E70.93492
G1 X101.148 Y159.120 E71.72576
G1 X100.759 Y159.120 E71.74694
G1 X90.880 Y149.241 E72.50782
G1 X90.880 Y149.630 E72.52900
G1 X100.370 Y159.120 E73.25994
G1 X99.981 Y159.120 E73.28112
G1 X90.880 Y150.019 E73.98209
G1 X90.880 Y150.408 E74.00327
G1 X99.592 Y159.120 E74.67430
G1 X99.203 Y159.120 E74.69548
G1 X90.880 Y150.797 E75.33655
G1 X90.880 Y151.186 E75.35773
G1 X98.814 Y159.120 E75.96885
G1 X98.426 Y159.120 E75.99003
G1 X90.880 Y151.574 E76.57120
G1 X90.880 Y151.963 E76.59238
G1 X98.037 Y159.120 E77.14359
G1 X97.648 Y159.120 E77.16477
G1 X90.880 Y152.352 E77.68603
G1 X90.880 Y152.741 E77.70721
G1 X97.259 Y159.120 E78.19852
G1 X96.870 Y159.120 E78.21970
G1 X90.880 Y153.130 E78.68106
G1 X90.880 Y153.519 E78.70224
G1 X96.481 Y159.120 E79.13364
G1 X96.092 Y159.120 E79.15482
G1 X90.880 Y153.908 E79.55627
G1 X90.880 Y154.297 E79.57745
G1 X95.703 Y159.120 E79.94894
G1 X95.314 Y159.120 E79.97012
G1 X90.880 Y154.686 E80.31167
G1 X90.880 Y155.074 E80.33285
G1 X94.926 Y159.120 E80.64444
G1 X94.537 Y159.120 E80.66562
G1 X90.880 Y155.463 E80.94725
G1 X90.880 Y155.852 E80.96843
G1 X94.148 Y159.120 E81.22012
G1 X93.759 Y159.120 E81.24130
G1 X90.880 Y156.241 E81.46303
G1 X90.880 Y156.630 E81.48421
G1 X93.370 Y159.120 E81.67599
G1 X92.981 Y159.120 E81.69717
G1 X90.880 Y157.019 E81.85899
G1 X90.880 Y157.408 E81.88017
G1 X92.592 Y159.120 E82.01204
G1 X92.203 Y159.120 E82.03322
G1 X90.880 Y157.797 E82.13514
G1 X90.880 Y158.186 E82.15632
G1 X91.814 Y159.120 E82.22829
G1 X91.426 Y159.120 E82.24947
G1 X90.880 Y158.574 E82.29148
G1 X90.880 Y158.963 E82.31266
G1 X91.037 Y159.120 E82.32472
G1 Z0.650 F7800.000
G1 X108.929 Y158.929 F7800.000
G1 X91.071 Y158.929 E83.58471 F3600.000
G1 X91.071 Y141.071 E84.84470
G1 X108.929 Y141.071 E86.10468
G1 X108.929 Y158.869 E87.36043
G1 X109.344 Y159.344 F7800.000
G1 X90.656 Y159.344 E88.67907 F3600.000
G1 X90.656 Y140.656 E89.99771
G1 X109.344 Y140.656 E91.31635
G1 X109.344 Y159.284 E92.63075
G1 X109.760 Y159.760 F7800.000
G1 X90.240 Y159.760 E94.00804 F1800.000
G1 X90.240 Y140.240 E95.38532
G1 X109.760 Y140.240 E96.76261
G1 X109.760 Y159.700 E98.13566
G1 X109.414 Y159.560 F7800.000
G1 X108.467 Y158.684 F7800.000
G1 X108.684 Y158.467 E98.15739 F1200.000
G1 X108.684 Y157.876 E98.19937
G1 X107.876 Y158.684 E98.28047
G1 X107.285 Y158.684 E98.32246
G1 X108.684 Y157.285 E98.46294
G1 X108.684 Y156.693 E98.50492
G1 X106.693 Y158.684 E98.70478
G1 X106.102 Y158.684 E98.74677
G1 X108.684 Y156.102 E99.00601
G1 X108.684 Y155.510 E99.04799
G1 X105.510 Y158.684 E99.36661
G1 X104.919 Y158.684 E99.40860
G1 X108.684 Y154.919 E99.78659
G1 X108.684 Y154.327 E99.82858
G1 X104.327 Y158.684 E100.26595
G1 X103.736 Y158.684 E100.30794
G1 X108.684 Y153.736 E100.80469
G1 X108.684 Y153.145 E100.84668
G1 X103.145 Y158.684 E101.40281
G1 X102.553 Y158.684 E101.44480
G1 X108.684 Y152.553 E102.06031
G1 X108.684 Y151.962 E102.10230
G1 X101.962 Y158.684 E102.77719
G1 X101.370 Y158.684 E102.81917
G1 X108.684 Y151.370 E103.55344
G1 X108.684 Y150.779 E103.59543
G1 X100.779 Y158.684 E104.38908
G1 X100.188 Y158.684 E104.43106
G1 X108.684 Y150.188 E105.28409
G1 X108.684 Y149.596 E105.32608
G1 X99.596 Y158.684 E106.23849
G1 X99.005 Y158.684 E106.28047
G1 X108.684 Y149.005 E107.25226
G1 X108.684 Y148.413 E107.29424
G1 X98.413 Y158.684 E108.32541
G1 X97.822 Y158.684 E108.36740
G1 X108.684 Y147.822 E109.45794
G1 X108.684 Y147.230 E109.49993
G1 X97.230 Y158.684 E110.64985
G1 X96.639 Y158.684 E110.69184
G1 X108.684 Y146.639 E111.90114
G1 X108.684 Y146.048 E111.94313
G1 X96.048 Y158.684 E113.21181
G1 X95.456 Y158.684 E113.25379
G1 X108.684 Y145.456 E114.58185
G1 X108.684 Y144.865 E114.62384
G1 X94.865 Y158.684 E116.01128
G1 X94.273 Y158.684 E116.05327
G1 X108.684 Y144.273 E117.50008
G1 X108.684 Y143.682 E117.54207
G1 X93.682 Y158.684 E119.04827
G1 X93.091 Y158.684 E119.09025
G1 X108.684 Y143.091 E120.65583
G1 X108.684 Y142.499 E120.69782
G1 X92.499 Y158.684 E122.32277
G1 X91.908 Y158.684 E122.36476
G1 X108.684 Y141.908 E124.04909
G1 X108.664 Y141.336 E124.08968
G1 X91.336 Y158.664 E125.82938
G1 X91.316 Y158.092 E125.86997
G1 X108.092 Y141.316 E127.55430
G1 X107.501 Y141.316 E127.59629
G1 X91.316 Y157.501 E129.22124
G1 X91.316 Y156.909 E129.26323
G1 X106.909 Y141.316 E130.82880
G1 X106.318 Y141.316 E130.87079
G1 X91.316 Y156.318 E132.37698
G1 X91.316 Y155.727 E132.41897
G1 X105.727 Y141.316 E133.86578
G1 X105.135 Y141.316 E133.90777
G1 X91.316 Y155.135 E135.29520
G1 X91.316 Y154.544 E135.33719
G1 X104.544 Y141.316 E136.66525
G1 X103.952 Y141.316 E136.70723
G1 X91.316 Y153.952 E137.97591
G1 X91.316 Y153.361 E138.01790
G1 X103.361 Y141.316 E139.22720
G1 X102.770 Y141.316 E139.26918
G1 X91.316 Y152.770 E140.41910
G1 X91.316 Y152.178 E140.46109
G1 X102.178 Y141.316 E141.55163
G1 X101.587 Y141.316 E141.59362
G1 X91.316 Y151.587 E142.62478
G1 X91.316 Y150.995 E142.66676
G1 X100.995 Y141.316 E143.63855
G1 X100.404 Y141.316 E143.68053
G1 X91.316 Y150.404 E144.59294
G1 X91.316 Y149.812 E144.63492
G1 X99.812 Y141.316 E145.48795
G1 X99.221 Y141.316 E145.52993
G1 X91.316 Y149.221 E146.32358
G1 X91.316 Y148.630 E146.36556
G1 X98.630 Y141.316 E147.09983
G1 X98.038 Y141.316 E147.14182
G1 X91.316 Y148.038 E147.81670
G1 X91.316 Y147.447 E147.85869
G1 X97.447 Y141.316 E148.47420
G1 X96.855 Y141.316 E148.51618
G1 X91.316 Y146.855 E149.07231
G1 X91.316 Y146.264 E149.11430
G1 X96.264 Y141.316 E149.61105
G1 X95.673 Y141.316 E149.65304
G1 X91.316 Y145.673 E150.09041
G1 X91.316 Y145.081 E150.13239
G1 X95.081 Y141.316 E150.51038
G1 X94.490 Y141.316 E150.55237
G1 X91.316 Y144.490 E150.87098
G1 X91.316 Y143.898 E150.91297
G1 X93.898 Y141.316 E151.17220
G1 X93.307 Y141.316 E151.21419
G1 X91.316 Y143.307 E151.41404
G1 X91.316 Y142.715 E151.45603
G1 X92.715 Y141.316 E151.59650
G1 X92.124 Y141.316 E151.63849
G1 X91.316 Y142.124 E151.71959
G1 X91.316 Y141.533 E151.76157
G1 X91.533 Y141.316 E151.78329
G1 Z0.950 F7800.000
G1 X108.929 Y158.929 F7800.000
G1 X91.071 Y158.929 E153.04328 F3600.000
G1 X91.071 Y141.071 E154.30326
G1 X108.929 Y141.071 E155.56325
G1 X108.929 Y158.869 E156.81900
G1 X109.344 Y159.344 F7800.000
G1 X90.656 Y159.344 E158.13764 F3600.000
G1 X90.656 Y140.656 E159.45628
G1 X109.344 Y140.656 E160.77491
G1 X109.344 Y159.284 E162.08932
G1 X109.760 Y159.760 F7800.000
G1 X90.240 Y159.760 E163.46661 F1800.000
G1 X90.240 Y140.240 E164.84389
G1 X109.760 Y140.240 E166.22118
G1 X109.760 Y159.700 E167.59423
G1 X109.414 Y159.560 F7800.000
G1 X108.684 Y141.533 F7800.000
G1 X108.467 Y141.316 E167.61595 F1200.000
G1 X107.876 Y141.316 E167.65794
G1 X108.684 Y142.124 E167.73904
G1 X108.684 Y142.715 E167.78103
G1 X107.285 Y141.316 E167.92151
G1 X106.693 Y141.316 E167.96349
G1 X108.684 Y143.307 E168.16335
G1 X108.684 Y143.898 E168.20534
G1 X106.102 Y141.316 E168.46457
G1 X105.510 Y141.316 E168.50656
G1 X108.684 Y144.490 E168.82518
G1 X108.684 Y145.081 E168.86716
G1 X104.919 Y141.316 E169.24516
G1 X104.327 Y141.316 E169.28715
G1 X108.684 Y145.673 E169.72452
G1 X108.684 Y146.264 E169.76651
G1 X103.736 Y141.316 E170.26326
G1 X103.145 Y141.316 E170.30525
G1 X108.684 Y146.855 E170.86138
G1 X108.684 Y147.447 E170.90337
G1 X102.553 Y141.316 E171.51888
G1 X101.962 Y141.316 E171.56086
G1 X108.684 Y148.038 E172.23575
G1 X108.684 Y148.630 E172.27774
G1 X101.370 Y141.316 E173.01201
G1 X100.779 Y141.316 E173.05400
G1 X108.684 Y149.221 E173.84765
G1 X108.684 Y149.812 E173.88963
G1 X100.188 Y141.316 E174.74266
G1 X99.596 Y141.316 E174.78465
G1 X108.684 Y150.404 E175.69705
G1 X108.684 Y150.995 E175.73904
G1 X99.005 Y141.316 E176.71083
G1 X98.413 Y141.316 E176.75281
G1 X108.684 Y151.587 E177.78398
G1 X108.684 Y152.178 E177.82596
G1 X97.822 Y141.316 E178.91651
G1 X97.230 Y141.316 E178.95849
G1 X108.684 Y152.770 E180.10842
G1 X108.684 Y153.361 E180.15040
G1 X96.639 Y141.316 E181.35971
G1 X96.048 Y141.316 E181.40169
G1 X108.684 Y153.952 E182.67037
G1 X108.684 Y154.544 E182.71236
G1 X95.456 Y141.316 E184.04042
G1 X94.865 Y141.316 E184.08241
G1 X108.684 Y155.135 E185.46985
G1 X108.684 Y155.727 E185.51183
G1 X94.273 Y141.316 E186.95865
G1 X93.682 Y141.316 E187.00064
G1 X108.684 Y156.318 E188.50683
G1 X108.684 Y156.909 E188.54882
G1 X93.091 Y141.316 E190.11440
G1 X92.499 Y141.316 E190.15639
G1 X108.684 Y157.501 E191.78134
G1 X108.684 Y158.092 E191.82333
G1 X91.908 Y141.316 E193.50766
G1 X91.336 Y141.336 E193.54825
G1 X108.664 Y158.664 E195.28795
G1 X108.092 Y158.684 E195.32854
G1 X91.316 Y141.908 E197.01287
G1 X91.316 Y142.499 E197.05486
G1 X107.501 Y158.684 E198.67981
G1 X106.909 Y158.684 E198.72180
G1 X91.316 Y143.091 E200.28737
G1 X91.316 Y143.682 E200.32935
G1 X106.318 Y158.684 E201.83555
G1 X105.727 Y158.684 E201.87754
G1 X91.316 Y144.273 E203.32435
G1 X91.316 Y144.865 E203.36634
G1 X105.135 Y158.684 E204.75377
