; generated by Slic3r 1.2.9 on 2017-02-08 at 11:13:35

; external perimeters extrusion width = 0.40mm
; perimeters extrusion width = 0.48mm
; infill extrusion width = 0.48mm
; solid infill extrusion width = 0.48mm
; top infill extrusion width = 0.48mm

; external perimeters extrusion width = 0.40mm
; perimeters extrusion width = 0.48mm
; infill extrusion width = 0.48mm
; solid infill extrusion width = 0.48mm
; top infill extrusion width = 0.48mm

; WIPE TOWER PARAMS
; forceToolChanges=true
; nozzleDiameter=0.4
; filamentDiameter=1.75
; extrusionWidth=0
; layerHeight=0.3
; firstLayerHeight=0.35
; extrusionMultiplier=0.9
; firstLayerExtrusionMultiplier=2
; retractionLength=2
; toolChangeRetractionLength=0
; bedWidth=200
; bedDepth=300
; extruders=2
; wipeTowerX=80
; wipeTowerY=240
; wipeTowerW=10
; wipeTowerH=10
; wipeTowerSpacing=20
; wipeTowerLoops=5
; wipeTowerBrimLoops=7
; wipeOffset=2
; purgeOffset=1.33
; wipeLift=5
; travelLift=1
; purgeAmount=0.5
; retractionFeedrate=40
; travelFeedrate=130
; printFeedrate=60
; extrusionFeedrate=25

M80 ; power on ATX
G4  P5000 ; sleep 5 second
M140 S80 ; set the bed temperature and continue on
M104 S240; set the hotend temperature and continue on
G21 ;metric values
G91; relative positioning
G0 Z10; 10mm up
G90 ;absolute positioning
M82 ;set extruder to absolute mode
M107 ;start with the fan off
G28 X0 Y0 ;move X/Y to min endstops
G28 Z0 ;move Z to min endstops
G29 ;autobed
G1 Z15.0 F9000 ;move the platform down 15mm
M190 S80 ; set the bed temperature and wait
M109 S240; wait for the extruder temperature
G92 E0 ;zero the extruded length
G1 F200 E5 ;extrude 5mm of feed stock
G92 E0 ;zero the extruded length again
G1 F9000
M117 Imprimiendo...
G21 ; set units to millimeters
G90 ; use absolute coordinates
M82 ; use absolute distances for extrusion
G92 E0
T0
G92 E0
G1 Z0.350 F7800.000
; next layer
; tool change
T0
; printing square tower with layer height 0.35
G91 ; set relative positioning
G1 Z1
G90 ; set absolute positioning
G1 X73 Y233 F7800
G91 ; set relative positioning
G1 Z-1
G90 ; set absolute positioning
G1 X73 Y233 F7800
; printing brim
G1 X72.2 Y232.2 F7800
G1 E0 F2400
G1 X72.2 Y247.8 E1.816 F3600
G1 X87.8 Y247.8 E1.816 F3600
G1 X87.8 Y232.2 E1.816 F3600
G1 X72.2 Y232.2 E1.816 F3600
G1 X72.6 Y232.6 F7800
G1 X72.6 Y247.4 E1.7229 F3600
G1 X87.4 Y247.4 E1.7229 F3600
G1 X87.4 Y232.6 E1.7229 F3600
G1 X72.6 Y232.6 E1.7229 F3600
G1 X73 Y233 F7800
G1 X73 Y247 E1.6297 F3600
G1 X87 Y247 E1.6297 F3600
G1 X87 Y233 E1.6297 F3600
G1 X73 Y233 E1.6297 F3600
G1 X73.4 Y233.4 F7800
G1 X73.4 Y246.6 E1.5366 F3600
G1 X86.6 Y246.6 E1.5366 F3600
G1 X86.6 Y233.4 E1.5366 F3600
G1 X73.4 Y233.4 E1.5366 F3600
G1 X73.8 Y233.8 F7800
G1 X73.8 Y246.2 E1.4435 F3600
G1 X86.2 Y246.2 E1.4435 F3600
G1 X86.2 Y233.8 E1.4435 F3600
G1 X73.8 Y233.8 E1.4435 F3600
G1 X74.2 Y234.2 F7800
G1 X74.2 Y245.8 E1.3504 F3600
G1 X85.8 Y245.8 E1.3504 F3600
G1 X85.8 Y234.2 E1.3504 F3600
G1 X74.2 Y234.2 E1.3504 F3600
G1 X74.6 Y234.6 F7800
G1 X74.6 Y245.4 E1.2572 F3600
G1 X85.4 Y245.4 E1.2572 F3600
G1 X85.4 Y234.6 E1.2572 F3600
G1 X74.6 Y234.6 E1.2572 F3600
G1 E0 F2400
; printing loops
G1 X75 Y235 F7800
G1 E0 F2400
G1 X75 Y245 E1.1641 F3600
G1 X85 Y245 E1.1641 F3600
G1 X85 Y235 E1.1641 F3600
G1 X75 Y235 E1.1641 F3600
G1 X75.4 Y235.4 F7800
G1 X75.4 Y244.6 E1.071 F3600
G1 X84.6 Y244.6 E1.071 F3600
G1 X84.6 Y235.4 E1.071 F3600
G1 X75.4 Y235.4 E1.071 F3600
G1 X75.8 Y235.8 F7800
G1 X75.8 Y244.2 E0.9778 F3600
G1 X84.2 Y244.2 E0.9778 F3600
G1 X84.2 Y235.8 E0.9778 F3600
G1 X75.8 Y235.8 E0.9778 F3600
G1 X76.2 Y236.2 F7800
G1 X76.2 Y243.8 E0.8847 F3600
G1 X83.8 Y243.8 E0.8847 F3600
G1 X83.8 Y236.2 E0.8847 F3600
G1 X76.2 Y236.2 E0.8847 F3600
G1 X76.6 Y236.6 F7800
G1 X76.6 Y243.4 E0.7916 F3600
G1 X83.4 Y243.4 E0.7916 F3600
G1 X83.4 Y236.6 E0.7916 F3600
G1 X76.6 Y236.6 E0.7916 F3600
G1 E0 F2400
G91 ; set relative positioning
G1 Z1
G90 ; set absolute positioning
G1 X73 Y148 F7800
G91 ; set relative positioning
G1 Z-1
G90 ; set absolute positioning
G1 E-2.00000 F2400.00000
G1 X86.579 Y134.218 F7800.000
G1 E2.00000 F2400.00000
G1 X88.739 Y133.401 E2.10860 F1800.000
G1 X90.000 Y133.282 E2.16814
G1 X110.000 Y133.282 E3.10854
G1 X112.275 Y133.679 E3.21714
G1 X114.282 Y134.823 E3.32574
G1 X115.782 Y136.579 E3.43435
G1 X116.599 Y138.739 E3.54295
G1 X116.718 Y140.000 E3.60248
G1 X116.718 Y160.000 E4.54289
G1 X116.321 Y162.275 E4.65149
G1 X115.177 Y164.282 E4.76009
G1 X113.421 Y165.782 E4.86869
G1 X111.261 Y166.599 E4.97729
G1 X110.000 Y166.718 E5.03683
G1 X90.000 Y166.718 E5.97723
G1 X87.725 Y166.321 E6.08584
G1 X85.718 Y165.177 E6.19444
G1 X84.218 Y163.421 E6.30304
G1 X83.401 Y161.261 E6.41164
G1 X83.282 Y160.000 E6.47117
G1 X83.282 Y140.000 E7.41158
G1 X83.679 Y137.725 E7.52018
G1 X84.823 Y135.718 E7.62878
G1 X86.533 Y134.257 E7.73456
G1 X86.922 Y134.436 F7800.000
G1 X90.000 Y133.641 E7.88405 F1800.000
G1 X110.000 Y133.641 E8.82446
G1 X112.211 Y134.038 E8.93010
G1 X114.147 Y135.179 E9.03573
G1 X115.564 Y136.922 E9.14137
G1 X116.359 Y140.000 E9.29086
G1 X116.359 Y160.000 E10.23127
G1 X115.962 Y162.211 E10.33691
G1 X114.821 Y164.147 E10.44254
G1 X113.078 Y165.564 E10.54818
G1 X110.000 Y166.359 E10.69767
G1 X90.000 Y166.359 E11.63808
G1 X87.789 Y165.962 E11.74372
G1 X85.853 Y164.821 E11.84935
G1 X84.436 Y163.078 E11.95499
G1 X83.641 Y160.000 E12.10448
G1 X83.641 Y140.000 E13.04489
G1 X84.038 Y137.789 E13.15053
G1 X85.179 Y135.853 E13.25616
G1 X86.875 Y134.474 E13.35898
G1 E11.35898 F2400.00000
G1 X108.843 Y141.349 F7800.000
G1 E2.00000 F2400.00000
G1 X108.651 Y141.157 E2.01296 F1800.000
G1 X108.136 Y141.157 E2.03748
G1 X108.843 Y141.864 E2.08511
G1 X108.843 Y142.378 E2.10963
G1 X107.622 Y141.157 E2.19193
G1 X107.107 Y141.157 E2.21645
G1 X108.843 Y142.893 E2.33342
G1 X108.843 Y143.407 E2.35794
G1 X106.593 Y141.157 E2.50959
G1 X106.078 Y141.157 E2.53411
G1 X108.843 Y143.922 E2.72043
G1 X108.843 Y144.436 E2.74494
G1 X105.564 Y141.157 E2.96594
G1 X105.049 Y141.157 E2.99045
G1 X108.843 Y144.951 E3.24612
G1 X108.843 Y145.465 E3.27064
G1 X104.535 Y141.157 E3.56097
G1 X104.020 Y141.157 E3.58549
G1 X108.843 Y145.980 E3.91050
G1 X108.843 Y146.494 E3.93502
G1 X103.506 Y141.157 E4.29470
G1 X102.991 Y141.157 E4.31922
G1 X108.843 Y147.009 E4.71357
G1 X108.843 Y147.523 E4.73809
G1 X102.477 Y141.157 E5.16711
G1 X101.962 Y141.157 E5.19163
G1 X108.843 Y148.038 E5.65533
G1 X108.843 Y148.553 E5.67985
G1 X101.447 Y141.157 E6.17822
G1 X100.933 Y141.157 E6.20273
G1 X108.843 Y149.067 E6.73578
G1 X108.843 Y149.582 E6.76029
G1 X100.418 Y141.157 E7.32801
G1 X99.904 Y141.157 E7.35253
G1 X108.843 Y150.096 E7.95491
G1 X108.843 Y150.611 E7.97943
G1 X99.389 Y141.157 E8.61649
G1 X98.875 Y141.157 E8.64101
G1 X108.843 Y151.125 E9.31274
G1 X108.843 Y151.640 E9.33725
G1 X98.360 Y141.157 E10.04366
G1 X97.846 Y141.157 E10.06818
G1 X108.843 Y152.154 E10.80925
G1 X108.843 Y152.669 E10.83377
G1 X97.331 Y141.157 E11.60952
G1 X96.817 Y141.157 E11.63403
G1 X108.843 Y153.183 E12.44445
G1 X108.843 Y153.698 E12.46897
G1 X96.302 Y141.157 E13.31406
G1 X95.788 Y141.157 E13.33858
G1 X108.843 Y154.212 E14.21834
G1 X108.843 Y154.727 E14.24286
G1 X95.273 Y141.157 E15.15730
G1 X94.758 Y141.157 E15.18182
G1 X108.843 Y155.242 E16.13092
G1 X108.843 Y155.756 E16.15544
G1 X94.244 Y141.157 E17.13922
G1 X93.729 Y141.157 E17.16374
G1 X108.843 Y156.271 E18.18219
G1 X108.843 Y156.785 E18.20671
G1 X93.215 Y141.157 E19.25984
G1 X92.700 Y141.157 E19.28435
G1 X108.843 Y157.300 E20.37215
G1 X108.843 Y157.814 E20.39667
G1 X92.186 Y141.157 E21.51914
G1 X91.671 Y141.157 E21.54365
G1 X108.843 Y158.329 E22.70080
G1 X108.823 Y158.823 E22.72438
G1 X91.177 Y141.177 E23.91350
G1 X91.157 Y141.671 E23.93708
G1 X108.329 Y158.843 E25.09422
G1 X107.814 Y158.843 E25.11874
G1 X91.157 Y142.186 E26.24121
G1 X91.157 Y142.700 E26.26572
G1 X107.300 Y158.843 E27.35352
G1 X106.785 Y158.843 E27.37804
G1 X91.157 Y143.215 E28.43116
G1 X91.157 Y143.729 E28.45568
G1 X106.271 Y158.843 E29.47413
G1 X105.756 Y158.843 E29.49865
G1 X91.157 Y144.244 E30.48243
G1 X91.157 Y144.758 E30.50695
G1 X105.242 Y158.843 E31.45605
G1 X104.727 Y158.843 E31.48057
G1 X91.157 Y145.273 E32.39501
G1 X91.157 Y145.788 E32.41952
G1 X104.212 Y158.843 E33.29929
G1 X103.698 Y158.843 E33.32380
G1 X91.157 Y146.302 E34.16889
G1 X91.157 Y146.817 E34.19341
G1 X103.183 Y158.843 E35.00383
G1 X102.669 Y158.843 E35.02835
G1 X91.157 Y147.331 E35.80409
G1 X91.157 Y147.846 E35.82861
G1 X102.154 Y158.843 E36.56969
G1 X101.640 Y158.843 E36.59420
G1 X91.157 Y148.360 E37.30060
G1 X91.157 Y148.875 E37.32512
G1 X101.125 Y158.843 E37.99685
G1 X100.611 Y158.843 E38.02137
G1 X91.157 Y149.389 E38.65843
G1 X91.157 Y149.904 E38.68294
G1 X100.096 Y158.843 E39.28533
G1 X99.582 Y158.843 E39.30985
G1 X91.157 Y150.418 E39.87756
G1 X91.157 Y150.933 E39.90208
G1 X99.067 Y158.843 E40.43512
G1 X98.553 Y158.843 E40.45964
G1 X91.157 Y151.447 E40.95801
G1 X91.157 Y151.962 E40.98252
G1 X98.038 Y158.843 E41.44622
G1 X97.523 Y158.843 E41.47074
G1 X91.157 Y152.477 E41.89976
G1 X91.157 Y152.991 E41.92428
G1 X97.009 Y158.843 E42.31863
G1 X96.494 Y158.843 E42.34315
G1 X91.157 Y153.506 E42.70283
G1 X91.157 Y154.020 E42.72735
G1 X95.980 Y158.843 E43.05235
G1 X95.465 Y158.843 E43.07687
G1 X91.157 Y154.535 E43.36721
G1 X91.157 Y155.049 E43.39172
G1 X94.951 Y158.843 E43.64739
G1 X94.436 Y158.843 E43.67191
G1 X91.157 Y155.564 E43.89290
G1 X91.157 Y156.078 E43.91741
G1 X93.922 Y158.843 E44.10373
G1 X93.407 Y158.843 E44.12825
G1 X91.157 Y156.593 E44.27990
G1 X91.157 Y157.107 E44.30442
G1 X92.893 Y158.843 E44.42139
G1 X92.378 Y158.843 E44.44591
G1 X91.157 Y157.622 E44.52821
G1 X91.157 Y158.136 E44.55273
G1 X91.864 Y158.843 E44.60036
G1 X91.349 Y158.843 E44.62488
G1 X91.157 Y158.651 E44.63783
G1 X109.099 Y159.099 F7800.000
G1 X90.901 Y159.099 E45.49351 F1800.000
G1 X90.901 Y140.901 E46.34919
G1 X109.099 Y140.901 E47.20487
G1 X109.099 Y159.039 E48.05772
G1 X109.458 Y159.458 F7800.000
G1 X90.542 Y159.458 E48.94716 F1800.000
G1 X90.542 Y140.542 E49.83660
G1 X109.458 Y140.542 E50.72605
G1 X109.458 Y159.398 E51.61267
G1 X109.800 Y159.800 F7800.000
G1 X90.200 Y159.800 E52.44661 F1800.000
G1 X90.200 Y140.200 E53.28055
G1 X109.800 Y140.200 E54.11449
G1 X109.800 Y159.740 E54.94588
G1 X109.454 Y159.600 F7800.000
; tool change
T1
; printing square tower with layer height 0.35
G91 ; set relative positioning
G1 Z1
G90 ; set absolute positioning
G1 X93 Y233 F7800
G91 ; set relative positioning
G1 Z-1
G90 ; set absolute positioning
G1 X93 Y233 F7800
; printing brim
G1 X92.2 Y232.2 F7800
G1 E0 F2400
G1 X92.2 Y247.8 E1.816 F3600
G1 X107.8 Y247.8 E1.816 F3600
G1 X107.8 Y232.2 E1.816 F3600
G1 X92.2 Y232.2 E1.816 F3600
G1 X92.6 Y232.6 F7800
G1 X92.6 Y247.4 E1.7229 F3600
G1 X107.4 Y247.4 E1.7229 F3600
G1 X107.4 Y232.6 E1.7229 F3600
G1 X92.6 Y232.6 E1.7229 F3600
G1 X93 Y233 F7800
G1 X93 Y247 E1.6297 F3600
G1 X107 Y247 E1.6297 F3600
G1 X107 Y233 E1.6297 F3600
G1 X93 Y233 E1.6297 F3600
G1 X93.4 Y233.4 F7800
G1 X93.4 Y246.6 E1.5366 F3600
G1 X106.6 Y246.6 E1.5366 F3600
G1 X106.6 Y233.4 E1.5366 F3600
G1 X93.4 Y233.4 E1.5366 F3600
G1 X93.8 Y233.8 F7800
G1 X93.8 Y246.2 E1.4435 F3600
G1 X106.2 Y246.2 E1.4435 F3600
G1 X106.2 Y233.8 E1.4435 F3600
G1 X93.8 Y233.8 E1.4435 F3600
G1 X94.2 Y234.2 F7800
G1 X94.2 Y245.8 E1.3504 F3600
G1 X105.8 Y245.8 E1.3504 F3600
G1 X105.8 Y234.2 E1.3504 F3600
G1 X94.2 Y234.2 E1.3504 F3600
G1 X94.6 Y234.6 F7800
G1 X94.6 Y245.4 E1.2572 F3600
G1 X105.4 Y245.4 E1.2572 F3600
G1 X105.4 Y234.6 E1.2572 F3600
G1 X94.6 Y234.6 E1.2572 F3600
G1 E0 F2400
; printing loops
G1 X95 Y235 F7800
G1 E0 F2400
G1 X95 Y245 E1.1641 F3600
G1 X105 Y245 E1.1641 F3600
G1 X105 Y235 E1.1641 F3600
G1 X95 Y235 E1.1641 F3600
G1 X95.4 Y235.4 F7800
G1 X95.4 Y244.6 E1.071 F3600
G1 X104.6 Y244.6 E1.071 F3600
G1 X104.6 Y235.4 E1.071 F3600
G1 X95.4 Y235.4 E1.071 F3600
G1 X95.8 Y235.8 F7800
G1 X95.8 Y244.2 E0.9778 F3600
G1 X104.2 Y244.2 E0.9778 F3600
G1 X104.2 Y235.8 E0.9778 F3600
G1 X95.8 Y235.8 E0.9778 F3600
G1 X96.2 Y236.2 F7800
G1 X96.2 Y243.8 E0.8847 F3600
G1 X103.8 Y243.8 E0.8847 F3600
G1 X103.8 Y236.2 E0.8847 F3600
G1 X96.2 Y236.2 E0.8847 F3600
G1 X96.6 Y236.6 F7800
G1 X96.6 Y243.4 E0.7916 F3600
G1 X103.4 Y243.4 E0.7916 F3600
G1 X103.4 Y236.6 E0.7916 F3600
G1 X96.6 Y236.6 E0.7916 F3600
G1 E0 F2400
G91 ; set relative positioning
G1 Z1
G90 ; set absolute positioning
G1 X93 Y148 F7800
G91 ; set relative positioning
G1 Z-1
G90 ; set absolute positioning
; end of layer lines

G92 E0
G92 E0
G1 Z0.650 F7800.000
; next layer
; tool change
T0
; printing square tower with layer height 0.3
G91 ; set relative positioning
G1 Z1
G90 ; set absolute positioning
G1 X73 Y233 F7800
G91 ; set relative positioning
G1 Z-1
G90 ; set absolute positioning
G1 X73 Y247 F7800
; printing loops
G1 X75 Y245 F7800
G1 E0 F2400
G1 X85 Y245 E0.449 F3600
G1 X85 Y235 E0.449 F3600
G1 X75 Y235 E0.449 F3600
G1 X75 Y245 E0.449 F3600
G1 X75.4 Y244.6 F7800
G1 X84.6 Y244.6 E0.4131 F3600
G1 X84.6 Y235.4 E0.4131 F3600
G1 X75.4 Y235.4 E0.4131 F3600
G1 X75.4 Y244.6 E0.4131 F3600
G1 X75.8 Y244.2 F7800
G1 X84.2 Y244.2 E0.3772 F3600
G1 X84.2 Y235.8 E0.3772 F3600
G1 X75.8 Y235.8 E0.3772 F3600
G1 X75.8 Y244.2 E0.3772 F3600
G1 X76.2 Y243.8 F7800
G1 X83.8 Y243.8 E0.3412 F3600
G1 X83.8 Y236.2 E0.3412 F3600
G1 X76.2 Y236.2 E0.3412 F3600
G1 X76.2 Y243.8 E0.3412 F3600
G1 X76.6 Y243.4 F7800
G1 X83.4 Y243.4 E0.3053 F3600
G1 X83.4 Y236.6 E0.3053 F3600
G1 X76.6 Y236.6 E0.3053 F3600
G1 X76.6 Y243.4 E0.3053 F3600
G1 E0 F2400
G91 ; set relative positioning
G1 Z1
G90 ; set absolute positioning
G1 X109.454 Y159.6 F7800
G91 ; set relative positioning
G1 Z-1
G90 ; set absolute positioning
G1 X108.485 Y158.702 F7800.000
G1 X108.702 Y158.485 E54.96037 F1200.000
G1 X108.702 Y157.892 E54.98825
G1 X107.892 Y158.702 E55.04216
G1 X107.299 Y158.702 E55.07004
G1 X108.702 Y157.299 E55.16337
G1 X108.702 Y156.707 E55.19125
G1 X106.707 Y158.702 E55.32402
G1 X106.114 Y158.702 E55.35190
G1 X108.702 Y156.114 E55.52409
G1 X108.702 Y155.521 E55.55197
G1 X105.521 Y158.702 E55.76358
G1 X104.929 Y158.702 E55.79146
G1 X108.702 Y154.929 E56.04251
G1 X108.702 Y154.336 E56.07038
G1 X104.336 Y158.702 E56.36086
G1 X103.743 Y158.702 E56.38873
G1 X108.702 Y153.743 E56.71863
G1 X108.702 Y153.151 E56.74651
G1 X103.151 Y158.702 E57.11584
G1 X102.558 Y158.702 E57.14372
G1 X108.702 Y152.558 E57.55247
G1 X108.702 Y151.965 E57.58035
G1 X101.965 Y158.702 E58.02852
G1 X101.373 Y158.702 E58.05640
G1 X108.702 Y151.373 E58.54401
G1 X108.702 Y150.780 E58.57189
G1 X100.780 Y158.702 E59.09892
G1 X100.187 Y158.702 E59.12680
G1 X108.702 Y150.187 E59.69325
G1 X108.702 Y149.595 E59.72113
G1 X99.595 Y158.702 E60.32702
G1 X99.002 Y158.702 E60.35490
G1 X108.702 Y149.002 E61.00021
G1 X108.702 Y148.410 E61.02809
G1 X98.410 Y158.702 E61.71283
G1 X97.817 Y158.702 E61.74071
G1 X108.702 Y147.817 E62.46487
G1 X108.702 Y147.224 E62.49275
G1 X97.224 Y158.702 E63.25634
G1 X96.632 Y158.702 E63.28422
G1 X108.702 Y146.632 E64.08724
G1 X108.702 Y146.039 E64.11512
G1 X96.039 Y158.702 E64.95756
G1 X95.446 Y158.702 E64.98544
G1 X108.702 Y145.446 E65.86732
G1 X108.702 Y144.854 E65.89519
G1 X94.854 Y158.702 E66.81649
G1 X94.261 Y158.702 E66.84437
G1 X108.702 Y144.261 E67.80510
G1 X108.702 Y143.668 E67.83298
G1 X93.668 Y158.702 E68.83313
G1 X93.076 Y158.702 E68.86101
G1 X108.702 Y143.076 E69.90059
G1 X108.702 Y142.483 E69.92847
G1 X92.483 Y158.702 E71.00747
G1 X91.890 Y158.702 E71.03535
G1 X108.702 Y141.890 E72.15378
G1 X108.682 Y141.318 E72.18074
G1 X91.318 Y158.682 E73.33594
G1 X91.298 Y158.110 E73.36289
G1 X108.110 Y141.298 E74.48132
G1 X107.517 Y141.298 E74.50920
G1 X91.298 Y157.517 E75.58821
G1 X91.298 Y156.924 E75.61609
G1 X106.924 Y141.298 E76.65567
G1 X106.332 Y141.298 E76.68355
G1 X91.298 Y156.332 E77.68370
G1 X91.298 Y155.739 E77.71158
G1 X105.739 Y141.298 E78.67230
G1 X105.146 Y141.298 E78.70018
G1 X91.298 Y155.146 E79.62148
G1 X91.298 Y154.554 E79.64936
G1 X104.554 Y141.298 E80.53123
G1 X103.961 Y141.298 E80.55911
G1 X91.298 Y153.961 E81.40156
G1 X91.298 Y153.368 E81.42944
G1 X103.368 Y141.298 E82.23245
G1 X102.776 Y141.298 E82.26033
G1 X91.298 Y152.776 E83.02392
